assets/icons/icon_sticks_7.svg

<svg width="30" height="30" viewBox="0 0 30 30" fill="none" xmlns="http://www.w3.org/2000/svg">
<path d="M9.34115 4.62693C8.28888 4.63188 7.26164 4.94722 6.38895 5.53318C5.51626 6.11914 4.8372 6.94948 4.43738 7.91952C4.03756 8.88955 3.93488 9.95585 4.1423 10.984C4.34972 12.0121 4.85795 12.9559 5.6029 13.6966C6.34785 14.4373 7.29617 14.9415 8.32829 15.1458C9.36041 15.3501 10.4301 15.2453 11.4025 14.8445C12.375 14.4438 13.2066 13.7651 13.7925 12.894C14.3784 12.023 14.6924 10.9985 14.6949 9.94981C14.6957 9.24951 14.5577 8.55594 14.2888 7.90895C14.0199 7.26195 13.6254 6.67428 13.1279 6.17967C12.6304 5.68507 12.0398 5.29328 11.39 5.02681C10.7401 4.76034 10.0438 4.62445 9.34115 4.62693ZM9.34115 5.41689C10.2383 5.41442 11.116 5.67711 11.8633 6.17175C12.6106 6.6664 13.1939 7.37077 13.5395 8.19581C13.8851 9.02085 13.9775 9.92949 13.8049 10.8068C13.6323 11.6842 13.2025 12.4908 12.57 13.1248C11.9374 13.7587 11.1303 14.1915 10.251 14.3683C9.37158 14.5452 8.45932 14.4582 7.62954 14.1183C6.79977 13.7785 6.08975 13.2011 5.58927 12.4591C5.08879 11.7171 4.82033 10.8439 4.81784 9.94981C4.81702 9.35701 4.93336 8.76985 5.16023 8.22186C5.3871 7.67387 5.72005 7.17577 6.14008 6.75602C6.56011 6.33626 7.05898 6.00306 7.60822 5.77545C8.15746 5.54783 8.74631 5.43026 9.34115 5.42943" fill="white"/>
<path d="M11.8136 8.21953C11.2548 8.80032 10.8146 9.48385 10.5176 10.2321C10.2538 10.9923 10.0848 11.7819 10.0143 12.5832L9.95139 13.1662H8.49814L8.55476 12.5832C8.63313 11.7603 8.83238 10.9533 9.14613 10.1882C9.44207 9.46125 9.86844 8.79413 10.4044 8.21953H7.2588V7.13489H11.7821L11.8136 8.21953Z" fill="white"/>
<path d="M11.694 25.21C11.712 25.4147 11.8063 25.6051 11.9583 25.7439C12.1103 25.8827 12.3089 25.9597 12.515 25.9597C12.7211 25.9597 12.9198 25.8827 13.0718 25.7439C13.2237 25.6051 13.318 25.4147 13.336 25.21V16.3135L11.694 17.9122V25.21Z" fill="white"/>
<path d="M14.8647 25.21C14.8827 25.4146 14.977 25.6051 15.129 25.7438C15.281 25.8826 15.4796 25.9596 15.6857 25.9596C15.8918 25.9596 16.0905 25.8826 16.2425 25.7438C16.3944 25.6051 16.4887 25.4146 16.5067 25.21V13.2288L14.8647 14.8275V25.21Z" fill="white"/>
<path d="M5.35258 25.2101C5.35422 25.3155 5.37668 25.4195 5.41867 25.5163C5.46066 25.613 5.52136 25.7006 5.59731 25.7739C5.67326 25.8473 5.76296 25.905 5.8613 25.9438C5.95963 25.9826 6.06468 26.0017 6.17043 26.0001C6.3846 26.0034 6.59143 25.9223 6.74581 25.7743C6.90019 25.6263 6.98961 25.4235 6.99456 25.2101V22.4766L5.35258 24.0628V25.2101Z" fill="white"/>
<path d="M8.52331 25.21C8.5413 25.4147 8.63558 25.6052 8.78756 25.7439C8.93954 25.8827 9.13818 25.9597 9.3443 25.9597C9.55042 25.9597 9.74906 25.8827 9.90103 25.7439C10.053 25.6052 10.1473 25.4147 10.1653 25.21V19.3981L8.52331 20.9906V25.21Z" fill="white"/>
<path d="M24.358 5.59875V25.21C24.376 25.4147 24.4703 25.6052 24.6223 25.7439C24.7742 25.8827 24.9729 25.9597 25.179 25.9597C25.3851 25.9597 25.5838 25.8827 25.7357 25.7439C25.8877 25.6052 25.982 25.4147 26 25.21V4L24.358 5.59875Z" fill="white"/>
<path d="M18.0355 25.21C18.0535 25.4146 18.1477 25.6051 18.2997 25.7439C18.4517 25.8826 18.6503 25.9596 18.8565 25.9596C19.0626 25.9596 19.2612 25.8826 19.4132 25.7439C19.5652 25.6051 19.6594 25.4146 19.6774 25.21V10.163L18.0355 11.7554V25.21Z" fill="white"/>
<path d="M21.2062 25.2101C21.2242 25.4147 21.3185 25.6052 21.4704 25.7439C21.6224 25.8827 21.821 25.9597 22.0272 25.9597C22.2333 25.9597 22.4319 25.8827 22.5839 25.7439C22.7359 25.6052 22.8302 25.4147 22.8482 25.2101V7.06586L21.2062 8.6646V25.2101Z" fill="white"/>
</svg>

<svg xmlns="http://www.w3.org/2000/svg" width="30" height="30" fill="none" viewBox="0 0 30 30"><path fill="#fff" d="M9.341 4.627a5.34 5.34 0 0 0-2.952.906A5.3 5.3 0 0 0 4.437 7.92a5.29 5.29 0 0 0 1.166 5.777 5.345 5.345 0 0 0 5.8 1.148 5.32 5.32 0 0 0 2.39-1.951 5.3 5.3 0 0 0 .496-4.985 5.32 5.32 0 0 0-2.899-2.882 5.4 5.4 0 0 0-2.049-.4m0 .79a4.55 4.55 0 0 1 2.522.755 4.52 4.52 0 0 1 1.677 2.024 4.51 4.51 0 0 1-.97 4.929 4.54 4.54 0 0 1-4.94.993 4.53 4.53 0 0 1-2.04-1.659 4.5 4.5 0 0 1 .55-5.703 4.53 4.53 0 0 1 3.201-1.327"/><path fill="#fff" d="M11.814 8.22a6.2 6.2 0 0 0-1.296 2.012 9.8 9.8 0 0 0-.504 2.351l-.063.583H8.498l.057-.583c.078-.823.277-1.63.591-2.395a6.5 6.5 0 0 1 1.258-1.968H7.26V7.135h4.523zM11.694 25.21a.82.82 0 0 0 .821.75.826.826 0 0 0 .821-.75v-8.896l-1.642 1.598zM14.865 25.21a.82.82 0 0 0 .82.75.826.826 0 0 0 .822-.75V13.229l-1.642 1.599zM5.353 25.21a.8.8 0 0 0 .817.79.813.813 0 0 0 .825-.79v-2.733l-1.642 1.586zM8.523 25.21a.82.82 0 0 0 .821.75.826.826 0 0 0 .821-.75v-5.812l-1.642 1.593zM24.358 5.599V25.21a.82.82 0 0 0 .821.75.825.825 0 0 0 .821-.75V4zM18.036 25.21a.82.82 0 0 0 .82.75.826.826 0 0 0 .821-.75V10.163l-1.642 1.592zM21.206 25.21a.82.82 0 0 0 .821.75.826.826 0 0 0 .821-.75V7.066l-1.642 1.599z"/></svg>
